X:1
T:Title
%%score { ( 1 3 ) | ( 2 4 5 ) }
L:1/8
M:3/4
K:A
V:1 treble nm="Grand Piano"
V:3 treble 
V:2 bass 
V:4 bass 
V:5 bass 
V:1
 z2 z2[Q:1/4=94] CE | [CA]2 [A,EG]2 ^EF | [DF]4 z2 | [EG]2 [B,DF]2 ^DE |[M:2/4] [CE]4 |[M:1/4] EA | %6
[M:3/4] [Ec]2 B2 AG | [DB]2 [A,FA]2 GF | [CE]2 [A,B,]2 [DF]E |[M:2/4] [B,D]2 [A,C]2 |[M:1/4] EA | %11
[M:3/4] [Ec]2 [=Ge]2 dc | [A,DF]2 [DB]2 cB | E3 A [B,G]B |[M:2/4] [CA]4 |] %15
V:2
 z2 z2 A,C | A,,2 C,2 CD | D,,2 D,2 G,B, | E,,2 E,2 =C^C |[M:2/4] A,,2 E,2 |[M:1/4] CC | %6
[M:3/4] A,,2 [E,A,D]2 CB, | D,,2 D,2 ED | z2 z2 G,2 |[M:2/4] A,,2 E,2 |[M:1/4] CC | %11
[M:3/4] A,4[K:treble] z2 | D,2 B,,2 ED | [E,C]3 [E,C] E,,-[E,,E,D] |[M:2/4] [A,,E,]4 |] %15
V:3
 x6 | x6 | z2 A,2 B,D | x6 |[M:2/4] z2 A,2 |[M:1/4] x2 |[M:3/4] x6 | x6 | x6 |[M:2/4] x4 | %10
[M:1/4] x2 |[M:3/4] x6 | x6 | x6 |[M:2/4] x4 |] %15
V:4
 x6 | x6 | x6 | x6 |[M:2/4] x4 |[M:1/4] x2 |[M:3/4] x6 | x6 | z2 E,4 |[M:2/4] x4 |[M:1/4] x2 | %11
[M:3/4] A,,2 C,2[K:treble] FE | x6 | z2 z2 .E,2 |[M:2/4] x4 |] %15
V:5
 x6 | x6 | x6 | x6 |[M:2/4] x4 |[M:1/4] x2 |[M:3/4] x6 | x6 | E,,2 z2 z C |[M:2/4] x4 |[M:1/4] x2 | %11
[M:3/4] x4[K:treble] x2 | x6 | x6 |[M:2/4] x4 |] %15

